X: 75
T: 75. Das walt mein Gott
N: Derived from chor075.krn
C: Johann Sebastian Bach
%%abc-version 2.0
%%abcx-abcm2ps-target-version 5.9.1 (29 Sep 2008)
%%abc-creator hum2abc beta
%%abcx-conversion-date 2019/03/11 17:28:18
%%abc-edited-by Craig Stuart Sapp
%%humdrum-veritas 3468452450
%%humdrum-veritas-data 4203591347
%%
%%barnumbers 0
L: 1/4
M: C
%%staves [1 2 3 4]
V: 1 clef=treble
V: 2 clef=treble
V: 3 clef=treble-8
V: 4 clef=bass
K: F
[V:1] F [I:setbarnb 1]| 
[V:2] D | 
[V:3] A | 
[V:4] D, | 
[V:1] FEF2 | 
[V:2] CCC2 | 
[V:3] AG//A//B/A2 | 
[V:4] A,,/B,,/C,F,,2 | 
[V:1] AcBA | 
[V:2] FGF/G/ G/F/- | 
[V:3] ccd/c/c | 
[V:4] F,3/E,/ D,/E,/F, | 
[V:1] GG!fermata!GC | 
[V:2] F/E/D!fermata!CC | 
[V:3] cG/F/- F/!fermata!E/F | 
[V:4] C,=B,,!fermata!C,A,, | 
[V:1] D/E/FFE | 
[V:2] B,C/D/CC | 
[V:3] F/G/AG/A/B | 
[V:4] B,,A,,/_B,,/C,C,, | 
[V:1] !fermata!F2zF/G/ | 
[V:2] !fermata!C2xC | 
[V:3] !fermata!A2xA/B/ | 
[V:4] !fermata!F,,2zF,, | 
[V:1] AGAB | 
[V:2] FGFF | 
[V:3] cccd | 
[V:4] F,3/E,/ F,/E,/D, | 
[V:1] c2!fermata!GG | 
[V:2] F2!fermata!EG/F/ | 
[V:3] c2!fermata!cd | 
[V:4] A,,/G,,/ A,,/B,,/!fermata!C,=B,, | 
[V:1] GGGG | 
[V:2] EDEE | 
[V:3] c=Bcc | 
[V:4] C,/E,/G,/F,/ E,/D,/C,/B,,/ | 
[V:1] A2!fermata!AF | 
[V:2] E/D/ E/^C/!fermata!DD/=C/ | 
[V:3] ^c/=B/ A/G/!fermata!FA | 
[V:4] A,,/=B,,/^C,/A,,/!fermata!D,D,- | 
[V:1] EDD^C | 
[V:2] _B,A,B,A, | 
[V:3] G3/F/E-E/G/ | 
[V:4] D,/^C,/ D,/F,,/ G,,/E,,/A,, | 
[V:1] !fermata!D3 |]  
[V:2] !fermata!A,3 |]  
[V:3] !fermata!^F3 |]  
[V:4] !fermata!D,,3 |]  



